!!!COM: Palestrina, Giovanni Perluigi da
!!!OPR: Missa Emendemus in melius
!!!OMD: Benedictus
!!!OTL: Hosanna
**kern	**kern	**kern	**kern
*Ibass	*Itenor	*Icalto	*Icant
!Bassus	!Tenor	!Altus	!Cantus
*clefF4	*clefGv2	*clefG2	*clefG2
*k[b-]	*k[b-]	*k[b-]	*k[b-]
*G:dor	*G:dor	*G:dor	*G:dor
*M4/2	*M4/2	*M4/2	*M4/2
=32	=32	=32	=32
0r	1r	1B-	0r
.	1F	2c	.
.	.	2c	.
=33	=33	=33	=33
0r	2G	2e-	1r
.	2G	1d	.
.	2B-	.	1f
.	2A	2c	.
=34	=34	=34	=34
0r	4G	4B-	2g
.	4A	4c	.
.	4B-	4d	2g
.	4c	4e	.
.	2d	2f	[1b-
.	2e-	[2g	.
=35	=35	=35	=35
0r	1d	2g]	2b-]
.	.	2f	2a
.	2.G	[1g	4g
.	.	.	4a
.	.	.	4b-
.	4A	.	4cc
=36	=36	=36	=36
1r	2B-	2g]	4dd
.	.	.	4cc
.	2d	4f	1b-
.	.	4e	.
1F	1c	1f	.
.	.	.	2a
=37	=37	=37	=37
2G	2B-	2d	0b-
2G	2B-	2g	.
2.B-	2d	4f	.
.	.	4e	.
.	2d	4d	.
4A	.	4c	.
=38	=38	=38	=38
2G	2e-	2B-	1r
2F	2d	2A	.
2E-	4c	2G	2r
.	4B-	.	.
4D	[2d	2F	2b-
4C	.	.	.
=39	=39	=39	=39
4BB-	4d]	1B-	2dd
4C	4c	.	.
2D	1B-	.	2dd
1C	.	1c	1ee-
.	2A	.	.
=40	=40	=40	=40
1BB-	2B-	2r	1dd
.	2B-	2d	.
1r	2A	2e	2cc
.	2G	[2g	2b-
=41	=41	=41	=41
0r	2.d	2g]	2a
.	.	2f	2.dd
.	4c	.	.
.	4B-	1d	.
.	4A	.	4cc
.	[2G	.	[2b-
=42	=42	=42	=42
1BB-	4G]	1d	4b-]
.	4F	.	4a
.	2B-	.	2g
2D	2A	1d	2f
2D	2F	.	[2a
=43	=43	=43	=43
1E-	1G	2r	4a]
.	.	.	4g
.	.	2B-	1g
1D	2A	2d	.
.	2A	2d	2f#
=44	=44	=44	=44
0C	0c	2.e-	[0g
.	.	4c	.
.	.	1e-	.
=45	=45	=45	=45
0GG	0B	0d	0g]
==	==	==	==
*-	*-	*-	*-
!!!CDT: 1525/^1526/-1594/2/2
!!!OCY: Italia
!!!AGN: Mass (Parody)
!!!AST: renaissance, vocal
!!!ASW: Antiphon
!!!PWK: Masses, Book 7
!!!RNB: Cadence finals: D
!!!YOR: Le Opere Complete, v. 23, p. 61
!!!YOO: Rome, Italy: Fratelli Scalera
!!!END: 1992//
!!!EED: John Miller
!!!YEC: Copyright 2000, John Miller
!!!YEN: United States of America
!!!YEM: Rights to all derivative electronic formats reserved.
!!!YEM: Refer to licensing agreement for further details.
!!!YEM: This file must be accompanied by the licensing agreement.
!!!YEM: A copy of the licensing agreement may be found at http://www.music-cog.ohio-state.edu/HumdrumDatabases/Palestrina/license.txt
!!!EMD: converted to Humdrum by Bret Aarden
